X:815
T:Dublin Reel, The
R:reel
H:Orginally in D, #323. The C version is my own
Z:id:hn-reel-815
M:C|
K:C
cE~E2 cEdE|cE~E2 GEDE|cE~E2 cedc|BGAE GED2|
cE~E2 cedB|cE~E2 GEDE|c3B cedc|BGAE GED2||
|:dG~G2 dGeG|dG~G2 AGEG|1 dG~G2 dged|cABG AGEG:|2 d2dc dged|cABG AGEG||
|:c3B cGEG|cBcG ECEG|1 c2cB cedc|BGAE GEDE:|2 c2ce dcdg|ecAB cedB||
